X: 34496
T: Rig A
R: jig
M: 6/8
K: Gmajor
|:E|DED DED|B2 G A2 B|c2 A F2 A|d2 B GFE|
DED DED|B2 G A2 B|ced cBA|G4G:|
|:A|B3 d3|e2 d B2 G|ABA E2 F|A2 G D2 z|
B3 d3|e2 d B2 G|ABA E2 F|G4G:|

